X:134
T:Bath Waltz. JGi.134
M:3/8
L:1/8
Q:3/8=60
S:Joshua Gibbons MS,1823,Tealby,Lincs.
R:waltz
C:No 12
O:Tealby,Lincolnshire
N:Bar 25 in MS has four quavers as shown
Z:VMP/R.Greig, 2009
K:C
G/A/B/|ccc|c2A/c/|eee|e2c/e/|g2e/c/|a2f/d/|BBB|c3:|
|:e/g/|g/f/f d/B/|d/c/c e/g/|g/f/e d/B/|c2e/g/|g/f/a/f/d/B/|d/c/c e/g/|g/f/a/f/d/B/|c2:|
|:G|cBc|d2e|{g}fAd|cB G|cBc|abc’b|g/a/g/f/e/d/|c2:|

